X:1
T:Zug, 77.76
T:Zug, 77.76
T:John Bacchus Dykes, possibly 1875
T:Public Domain Courtesy of the Cyber Hymnal™
C:John Bacchus Dykes, possibly 1875
Z:Public Domain
Z:Courtesy of the Cyber Hymnal™
%%score ( 1 2 ) 3
L:1/8
Q:1/2=110
M:4/2
K:E
V:1 treble 
V:2 treble 
V:3 bass 
V:1
 [EG]4 [EG]4 [EG]4 [EG]4 | [EB]6 [DF]2 [DF]8 | [=DF]4 [DF]4 [DF]4 [DF]4 | [=DA]6 [CE]2 [CE]8 | %4
 [B,E]4 [CE]4 [=DB]4 [DB]4 | [EB]4 [EA]4 ([EB]4 [Ec]4) | [B,E]4 D4 [DG]6 [DF]2 | [DF]8 E8 |] %8
V:2
 x16 | x16 | x16 | x16 | x16 | x16 | x16 | x8 E8 |] %8
V:3
 [E,B,]4 [E,B,]4 [C,C]4 [C,C]4 | [B,,G,]6 [B,,B,]2 [B,,B,]8 | [=D,A,]4 [D,A,]4 [B,,B,]4 [B,,B,]4 | %3
 [A,,F,]6 [A,,A,]2 [A,,A,]8 | [G,,E,]4 [G,,E,]4 [G,,E,]4 [E,G,]4 | %5
 [=D,G,]4 [C,A,]4 ([B,,G,]4 [A,,F,]4) | [B,,G,]4 [B,,E,]4 [B,,B,]6 [B,,A,]2 | [B,,A,]8 [E,G,]8 |] %8

